X: 1
T: Ducks On The Millpond
R: reel
M: 4/4
L: 1/8
K: Dmaj
|"D" d2 e2 fdef|defd e(dBA)|d2 e2 fde(d|"A" BA)Bd "D" e(dBA)|
"D" d2 e2 fdef|defd e(dBA)|d2 gdfd ed|"A" (BA)Bd e"D"d L d2||
"D" (f a2) (a2 b) ae|ffaf e(d L d2)|(f a2) (baf)e (d|"A" BA)Bd "D" e(d L d2)|
"D" (f a2) (a2 b) ae|ffaf e(d L d2)|(f a2) (a b2) B2|"A" defd e"D"(d L d2)||